X:430
T: Daogu fengshou duimancang
N: C2048
O: China,Anhui Qimen
S: III, 538, 2)]
R: Xiaodiao]
M: 2/4
L: 1/16
K: D
D2DFA4 | F2D2D2EF | E8 |
F2D2D2EF | B,8 |
D2B,DE4 | DEDB,A,4 | D3B,A,4 |
D2EFD2A,2 | B,2B,4D2 | EFEB,A,4 |
A2DFE4 | D2EFD2A,2 | B,2B,4D2 | EFDB,A,4- | A,4z4

@@@ Tune index: 6985
